src/assets/outline/Wanchain.svg

<svg width="24" height="24" viewBox="0 0 24 24"  xmlns="http://www.w3.org/2000/svg">
<path d="M16.4999 9.59954C16.3699 9.59954 16.2399 9.56954 16.1099 9.48954L11.9999 7.01954L7.88988 9.48954C7.53988 9.69954 7.06988 9.58953 6.85988 9.22953C6.64988 8.87953 6.75988 8.40953 7.11988 8.19953L11.6199 5.49953C11.8599 5.35953 12.1499 5.35953 12.3899 5.49953L16.8899 8.19953C17.2499 8.40953 17.3599 8.86953 17.1499 9.22953C16.9999 9.46953 16.7499 9.59954 16.4999 9.59954Z" />
<path d="M16.5 15.9C16.37 15.9 16.23 15.86 16.11 15.79L12 13.32L7.89 15.79C7.66 15.93 7.37 15.93 7.13 15.8C6.9 15.67 6.75 15.42 6.75 15.15V9C6.75 8.59 7.09 8.25 7.5 8.25C7.91 8.25 8.25 8.59 8.25 9V13.83L11.61 11.81C11.85 11.67 12.14 11.67 12.38 11.81L15.74 13.83V9C15.74 8.59 16.08 8.25 16.49 8.25C16.9 8.25 17.24 8.59 17.24 9V15.15C17.24 15.42 17.09 15.67 16.86 15.8C16.75 15.87 16.63 15.9 16.5 15.9Z" />
<path d="M11.9999 18.4503C11.8499 18.4503 11.7099 18.4103 11.5799 18.3203L9.32995 16.8203C8.98995 16.5903 8.88994 16.1203 9.11994 15.7803C9.34994 15.4303 9.81995 15.3403 10.1599 15.5703L11.99 16.7903L13.82 15.5703C14.16 15.3403 14.6299 15.4303 14.8599 15.7803C15.0899 16.1203 14.9999 16.5903 14.6499 16.8203L12.3999 18.3203C12.2899 18.4103 12.1499 18.4503 11.9999 18.4503Z" />
<path d="M12 22.75C6.07 22.75 1.25 17.93 1.25 12C1.25 6.07 6.07 1.25 12 1.25C17.93 1.25 22.75 6.07 22.75 12C22.75 17.93 17.93 22.75 12 22.75ZM12 2.75C6.9 2.75 2.75 6.9 2.75 12C2.75 17.1 6.9 21.25 12 21.25C17.1 21.25 21.25 17.1 21.25 12C21.25 6.9 17.1 2.75 12 2.75Z" />
</svg>

<?xml version="1.0" encoding="UTF-8"?>
<svg width="24" height="24" viewBox="0 0 24 24" xmlns="http://www.w3.org/2000/svg">
 <path d="m16.5 9.5995c-0.13 0-0.26-0.03-0.39-0.11l-4.11-2.47-4.11 2.47c-0.35 0.21-0.82 0.09999-1.03-0.26001-0.21-0.35-0.1-0.82 0.26-1.03l4.5-2.7c0.24-0.14 0.53-0.14 0.77 0l4.5 2.7c0.36 0.21 0.47 0.67 0.26 1.03-0.15 0.24-0.4 0.37001-0.65 0.37001z"/>
 <path d="m16.5 15.9c-0.13 0-0.27-0.04-0.39-0.11l-4.11-2.47-4.11 2.47c-0.23 0.14-0.52 0.14-0.76 0.01-0.23-0.13-0.38-0.38-0.38-0.65v-6.15c0-0.41 0.34-0.75 0.75-0.75s0.75 0.34 0.75 0.75v4.83l3.36-2.02c0.24-0.14 0.53-0.14 0.77 0l3.36 2.02v-4.83c0-0.41 0.34-0.75 0.75-0.75s0.75 0.34 0.75 0.75v6.15c0 0.27-0.15 0.52-0.38 0.65-0.11 0.07-0.23 0.1-0.36 0.1z"/>
 <path d="m12 18.45c-0.15 0-0.29-0.04-0.42-0.13l-2.25-1.5c-0.34-0.23-0.44001-0.7-0.21001-1.04 0.23-0.35 0.70001-0.44 1.04-0.21l1.8301 1.22 1.83-1.22c0.34-0.23 0.8099-0.14 1.0399 0.21 0.23 0.34 0.14 0.81-0.21 1.04l-2.25 1.5c-0.11 0.09-0.25 0.13-0.4 0.13z"/>
 <path d="m12 22.75c-5.93 0-10.75-4.82-10.75-10.75s4.82-10.75 10.75-10.75 10.75 4.82 10.75 10.75-4.82 10.75-10.75 10.75zm0-20c-5.1 0-9.25 4.15-9.25 9.25s4.15 9.25 9.25 9.25 9.25-4.15 9.25-9.25-4.15-9.25-9.25-9.25z"/>
</svg>
